!!!!SEGMENT: pl-wtm--iii-41-635_joteyko-tadeusz--melodies-alsaciennes-op-26.krn
!!!cenid: 19xx:116
!!!COM: Joteyko, Tadeusz
!!!COM-rismID: pe50046072
!!!CDT: 1872-1932
!!!CNT: Polish
!!!OTL: Melodies Alsaciennes op. 26
!!!PDT:
!!!AGN: Secular; Song
!!!YEC: Copyright 2022 Narodowy Instytut Fryderyka Chopina (https://polishscores.org)
!!!YEM: License CC-BY-4.0 (https://creativecommons.org/licenses/by/4.0)
!!!SMS-siglum: PL-Wtm
!!!SMS-shelfmark: III.41.635
!!!SMS-variant:
!!!SMS-altvar:
!!!SMS-shelfwork: W
!!!NIFC-rismSourceID: 1001141214
!!!NIFC-rismChildID: 1001141214
!!!NIFC-islandoraID: pl-wtm:20231
!!!URL-pdf-islandora: https://repozytorium.nifc.pl/islandora/object/pl-wtm%3A20231/datastream/PDF/view
!!!URL-scan: https://polish.musicsources.pl/pl/lokalizacje/galeria/druki-muzyczne/17519/2 @EN{Scan on Polish Music Sources Website} @PL{Skany w portalu Dziedzictwo Muzyki Polskiej w otwartym dostępie}
!!!IIIF:
!!!ONB-nifc:
!!!AIN: 1 piano
!!!key: G
**kern	**kern	**dynam
*part1	*part1	*part1
*staff2	*staff1	*staff1/2
*group1	*group1	*
*ICklav	*ICklav	*
*Ipiano	*Ipiano	*
*I"PIANO.	*I"PIANO.	*
*I'	*I'	*
*clefF4	*clefG2	*
*kcancel	*kcancel	*
*k[f#]	*k[f#]	*
*G:	*G:	*
*M4/4	*M4/4	*
=1	=1	=1
!!LO:TX:a:B:t=Andantino.
!	!	!LO:DY:rj
4B: 4D: 4GG:/	([4dd: 4g: 4d:/	p
4r	16dd/LL]	.
.	16cc/	.
.	16b/	.
.	16a/JJ	.
2r	16b/LL	.
.	16a/	.
.	16g/	.
.	16e/JJ	.
.	16d/LL	.
.	16e/	.
.	16g/	.
.	16b/JJ	.
=2	=2	=2
2r	8.ee\L	.
.	16b\Jk)	.
.	[4dd\	.
*clefG2	*	*
*brackettup	*	*
!LO:TX:t=P:problem:brackettup	!	!
(12b 12g/L	2dd;\]	.
12a 12d/	.	.
12gJ 12e/	.	.
4a 4d;/)	.	.
*clefF4	*	*
=3	=3	=3
4G: 4BB: 4EE:/	(>[4b: 4e: 4B:/	.
4r	16b/LL]	.
.	16a/	.
.	16g/	.
.	16f#/JJ	.
2r	16g/LL	.
.	16f#/	.
.	16e/	.
.	16c/JJ	.
.	16B/LL	.
.	16c/	.
.	16e/	.
.	16g/JJ	.
=4	=4	=4
2r	8.cc/L	.
.	16g/Jk	.
.	4b/)	.
4A 4E 4C\	(>8.a/L	.
.	16e/Jk	.
4G 4E 4BB\	4g/)	.
!!LO:LB:g=original
=5	=5	=5
*^	*	*
!	!	!	!LO:DY:rj
2F# 2E 2AA#X/	4ryy	(16f#/LL	pp
.	.	16e/	.
.	.	16c#X/	.
.	.	16e/JJ	.
.	4ryy	16f#/LL	.
.	.	16cc#X/	.
.	.	16f#/	.
.	.	16e/JJ)	.
2F# 2BB\	4D/	(16f#/LL	.
.	.	16d/	.
.	.	16B/	.
.	.	16d/JJ	.
.	4D/	16f#/LL	.
.	.	16b/	.
.	.	16f#/	.
.	.	16d/JJ)	.
=6	=6	=6	=6
2F# 2AA\	4D/	(16f#/LL	.
.	.	16d/	.
.	.	16cn/	.
.	.	16d/JJ	.
.	4D/	16f#/LL	.
.	.	16ccn/	.
.	.	16f#/	.
.	.	16d/JJ)	.
2G 2GG\	4D/	(16g/LL	.
.	.	16d/	.
.	.	16B/	.
.	.	16d/JJ	.
.	4D/	16g/LL	.
.	.	16b/	.
.	.	16g/	.
.	.	16d/JJ)	.
=7	=7	=7	=7
4rB	2D 2FFn\	(16g#X/LL	.
.	.	16d/	.
.	.	16B/	.
.	.	16d/JJ	<
4Fn/	.	16g#/LL	.
.	.	16dd/	.
.	.	16g#/	.
.	.	16d/JJ)	.
4rA	2C 2EE\	(<16a/LL	.
.	.	16e/	.
.	.	16c/	.
.	.	16e/JJ	.
4E/	.	16a\LL	.
.	.	16ee\	.
.	.	16cc\	.
.	.	16a\JJ)	.
*v	*v	*	*
!!LO:LB:g=original
=8	=8	=8
2G: 2BB: 2DD:/	(16b\LL	.
.	16dd\	.
.	16cc\	.
.	16b\JJ	.
.	16a/LL	[[
.	16g/	.
.	16f#/	.
.	16e/JJ	.
4r	16d/LL	.
.	16g/	.
.	16f#/	.
.	16e/JJ	.
4F#: 4AA: 4DD:/	16d/LL	.
.	16c/	.
.	16B/	.
.	16A/JJ	.
=9||	=9||	=9||
!!LO:TX:a:B:t=Moderato, marciale
4G 4GG/	4r	f
4F# 4FF#/	8.dL 8.B/)	.
.	16dJk 16B/	.
4E 4EE/	4d 4B/	.
4D 4DD/	4r	.
=10	=10	=10
4G 4GG/	4r	.
4F# 4FF#/	8.dL 8.B/	.
.	16dJk 16B/	.
4E 4EE/	4d 4B/	.
4D 4DD/	4r	.
=11	=11	=11
*	*^	*
4G 4GG/	2b 2g 2d/	2ryy	.
4F# 4FF#/	.	.	.
4E 4EE/	8.cc/L	4g 4c\	.
.	16b/Jk	.	.
4D 4DD/	8.cc/L	4f# 4d\	.
.	16a/Jk	.	.
*	*v	*v	*
=12	=12	=12
4G 4GG/	4b 4g 4d/	.
4F# 4FF#/	4g 4d 4B/	.
4E 4EE/	4b 4g 4e/	.
8.DL 8.DD/	8.bL 8.g 8.e/	.
16CJk 16CC/	16ccJk 16g 16e/	.
!!LO:LB:g=original
=13	=13	=13
4BB 4BBB/	4dd 4g 4d/	.
4BB 4BBB/	4dd 4g 4d/	.
4AA 4AAA/	4cc 4f# 4d/	.
4GG 4GGG/	4b 4g 4d/	.
=14	=14	=14
4D 4DD/	4a 4f# 4d/	.
4E 4EE/	8r	.
.	8d/	.
4F# 4FF#/	4cc 4a 4d/	.
8DL 8DD/	4a 4f# 4d/	.
8CJ 8CC/	.	.
=15	=15	=15
4BB 4BBB/	4dd 4g 4d/	.
4GG 4GGG/	4b 4g 4d/	.
4AA 4AAA/	4cc 4e 4c/	.
8DL 8DD/	4a 4f# 4d/	.
8CJ 8CC/	.	.
=16	=16	=16
8BBL 8BBB/	2dd 2g 2d/	.
8GG 8GGG/	.	.
8AA 8AAA/	.	.
8BBJ 8BBB/	.	.
4C 4CC/	4ee 4g 4e/	.
4BB 4BBB/	4dd 4g#X 4e/	.
=17	=17	=17
4AA 4AAA/	4dd 4a 4e/	.
4C 4CC/	8.ccL 8.a 8.e/	.
.	16bJk 16g 16e/	.
4C#X 4CC#X/	4a 4g 4e/	.
4D 4DD/	4dd 4a 4f# 4d/	.
=18	=18	=18
4G 4GG/	4b 4g 4d/	.
4F# 4FF#/	8r	.
.	8d/	.
4E 4EE/	4cc 4g 4e/	.
4C 4CC/	4a 4g 4e/	.
!!LO:LB:g=original
=19	=19	=19
4BB 4BBB/	4dd 4b 4g 4d/	.
4GG 4GGG/	4b 4g 4d/	.
4AA 4AAA/	4cc 4e 4c/	.
8DL 8DD/	4a 4f# 4d/	.
8CJ 8CC/	.	.
=20	=20	=20
*	*^	*
4BB 4BBB/	2dd 2d/	(4g\	.
4AA 4AAA/	.	4fn\)	.
4GG#X 4GGG#X/	4ee 4b 4e/	2ryy	.
4EE 4EEE/	4dd 4g#X 4e/	.	.
*	*v	*v	*
=21	=21	=21
4AA 4AAA/	4dd [>4a [4e/	.
4BB 4BBB/	8.ccL 8.a] 8.e/]	.
.	16bJk 16g 16e/	.
4C 4CC/	4a 4g 4e/	.
4D 4DD/	4dd 4a 4f# 4d/	.
=22	=22	=22
[4G [4GG/	[4g [>4d [4B/	.
8G] 8GG/]	8g] 8d] 8B/]	.
8r	8r	.
4E 4EE/	4b 4g 4e/	.
8.DL 8.DD/	8.bL 8.g 8.e/	.
16CJk 16CC/	16ccJk 16g 16e/	.
=23	=23	=23
*	*^	*
4BB 4BBB/	4.dd 4.b 4.f#/	2ryy	.
8AAL 8AAA/	.	.	.
8GGJ 8GGG/	8dd 8b 8g/	.	.
4AA 4AAA/	8.ccL 8.a/	4e\	.
.	16b/Jk	.	.
4D 4DD/	8.cc/L	4f# 4d\	.
.	16a/Jk	.	.
*	*v	*v	*
!!LO:LB:g=original
=24	=24	=24
4G 4GG/	4b 4g 4d/	.
4F# 4FF#/	4g 4d 4B/	.
4E 4EE/	4b 4g 4e/	.
8.DL 8.DD/	8.bL 8.g 8.e/	.
16CJk 16CC/	16ccJk 16g 16e/	.
=25	=25	=25
*	*^	*
4GG 4GGG/	4.dd 4.b/	(4g\	.
4GG#X 4GGG#X/	.	4fn\)	.
.	8dd 8b/	.	.
4AA 4AAA/	8.ccL 8.a/	4e\	.
.	16b/Jk	.	.
4C 4CC/	8.a/L	4e\	.
.	16g/Jk	.	.
=26	=26	=26	=26
2BB 2BBB/	2b 2f#/	(4e\	.
.	.	4d#X\)	.
4AA 4AAA/	4cc 4g 4e/	2ryy	.
4C 4CC/	4a 4g 4e/	.	.
*	*v	*v	*
=27	=27	=27
4GG 4GGG/	4b 4g 4d/	.
4BB 4BBB/	8.bL 8.g 8.d/	.
.	16bJk 16g 16d/	.
4C 4CC/	4a 4e/	.
4C#X 4CC#X/	4g 4e 4A/	.
=28	=28	=28
*	*^	*
4D 4DD/	2f# 2d 2A/	2ryy	.
4C#X 4CC#X/	.	.	.
4BB 4BBB/	8.dd/L	4f# 4d\	.
.	16cc#X/Jk	.	.
4GG 4GGG/	8.b/L	4g 4d\	.
.	16a/Jk	.	.
!!LO:PB:g=original
=29	=29	=29	=29
2AA 2AAA/	4a 4f# 4d/	2ryy	.
.	4f# 4d/	.	.
4AA 4AAA/	4a 4c#X/	4ryy	.
4AA 4AAA/	8.g/L	4c#\	.
.	16e/Jk	.	.
*	*v	*v	*
=30	=30	=30
4D 4DD/	2d/	<
4D 4DD/	.	.
4E 4EE/	2r	.
4F# 4FF#/	.	[[
=31	=31	=31
*	*^	*
8GG/L	2bb 2gg 2dd\	2ryy	ff
8D/	.	.	.
8G/	.	.	.
8D/J	.	.	.
8AA/L	8.ccc/L	4ff# 4dd\	.
8D/	.	.	.
.	16bb/Jk	.	.
8F#/	8.ccc/L	4dd\	.
8D/J	.	.	.
.	16aa/Jk	.	.
*	*v	*v	*
=32	=32	=32
8GG/L	4bb 4gg 4dd\	.
8D/	.	.
8G/	4gg 4dd 4b\	.
8D/J	.	.
8EE/L	4bb 4gg 4ee\	.
8BB/	.	.
8E/	8.bbL 8.gg 8.ee\	.
8G/J	.	.
.	16cccJk 16gg 16ee\	.
=33	=33	=33
8BB/L	4ddd 4gg 4dd\	.
8G/	.	.
8BB/	4ddd 4gg 4dd\	.
8G/J	.	.
8AA/L	4ccc 4ff# 4dd\	.
8D/	.	.
8GG/	4bb 4gg 4dd\	.
8D/J	.	.
!!LO:LB:g=original
=34	=34	=34
*	*^	*
8DD/L	2aa 2ff# 2dd\	2ryy	.
8AA/	.	.	.
8D/	.	.	.
8F#/J	.	.	.
!LO:TX:t=P:problem:mixed beam	!	!	!
8ryy	8A</L	8rb	.
8r	8d\	4.ryy	.
4r	8f#\	.	.
.	8a\J	.	.
*	*v	*v	*
=35	=35	=35
*	*^	*
4G 4GG/	2b 2g 2d/	2ryy	.
4Fn 4FFn/	.	.	.
4E 4EE/	8.cc/L	4g 4c\	.
.	16b/Jk	.	.
4E-X 4EE-X/	8.cc/L	4g 4c\	.
.	16a/Jk	.	.
*	*v	*v	*
=36	=36	=36
4D 4DD/	4b 4g 4d/	.
4C 4CC/	4cc 4g 4e-X/	.
4BB 4BBB/	4dd 4g 4d/	.
4AA 4AAA/	4ee-X 4g 4e-X/	.
=37	=37	=37
*	*^	*
4BB-X 4BBB-X/	4.dd/	4g 4d\	>
4C 4CC/	.	4g 4e-X\	.
.	8cc/	.	.
4D 4DD/	8.b-/L	4g 4d\	.
.	16a/Jk	.	.
4r	8.b-/L	4r	.
.	16g/Jk	.	.
*	*v	*v	*
=38	=38	=38
4E-X 4EE-X/	4a 4g 4c/	.
4r	4r	.
4D 4DD/	4a 4f# 4c/	.
.	.	]
4r	4r	.
!!LO:LB:g=original
=39||	=39||	=39||
*k[b-e-]	*k[b-e-]	*
*M6/8	*M6/8	*
!!LO:TX:a:B:t=Allegretto grazioso.
(4GG/	4r	p
8D\	8r	.
4G\	4r	.
8D\)	8d/	.
=40	=40	=40
!	!LO:TX:b:i:t=sempre legato	!
4GG/	4dd 4b-\	.
8D\	8dd 8b-\	.
4F#X\	4cc 4a\	.
8D\	8dd 8b-\	.
=41	=41	=41
4GG/	4b- 4g/	.
8D\	8r	.
4G\	4g/	.
8D\	8g/	.
=42	=42	=42
*	*^	*
4.C/	8a/L	4.e-\	.
.	8b-/	.	.
.	8cc/J	.	.
4D\	4b- 4g 4d/	8ryy	.
.	.	4ryy	.
8D\	8a 8f#X 8d/	.	.
*	*v	*v	*
=43	=43	=43
4GG/	4b- 4g 4d/	.
8D\	8r	.
4G\	4g/	.
8D\	8g/	.
=44	=44	=44
4GG/	4dd 4b-\	.
8D\	8dd 8b-\	.
4F#X\	4cc 4a\	.
8D\	8dd 8b-\	<
=45	=45	=45
4GG/	4.b- 4.g/	.
8G\	.	.
4E-\	4.cc 4.g/	.
.	.	[
8G\	.	.
!!LO:LB:g=original
=46	=46	=46
4D\	4.dd 4.b- 4.g/	.
8G\	.	.
4D\	(>8aL 8f#X 8c/	.
.	8b- 8f# 8d/	.
8D\	8aJ 8f# 8c/	.
=47	=47	=47
4GG/	4g 4B-/)	.
8D\	8r	.
4G\	4gg\	mf
8r	8gg\	.
=48	=48	=48
4A\	4ff\	.
8c\	8ff\	.
4f\	4ee- 4cc\	.
8F\	8ee- 8cc\	.
=49	=49	=49
4B-\	4dd 4b-\	.
8BB-/	8r	.
4D\	4ff 4b- 4f/	.
8F\	8b- 8d/	.
=50	=50	=50
4.FF/	8ccL 8e-/	.
.	8dd 8f/	.
.	8ee-J 8g/	.
4F\	4dd 4f/	.
8F\	8cc 8e-/	.
=51	=51	=51
*	*^	*
4BB-/	4dd/	4.f\	.
8D\	8b-/	.	.
4E-\	4gg 4b- 4g\	4.ryy	.
8B-\	8gg 8b- 8g\	.	.
*	*v	*v	*
=52	=52	=52
4D\	4ff 4b- 4f\	.
8B-\	8ff 8b- 8f\	.
4C/	4ee- 4a 4f\	.
.	.	.
8F\	8ee- 8a 8f\	.
!!LO:LB:g=original
=53	=53	=53
4BB-/	4dd 4b- 4f/	<
8D\	8r	.
4G\	4.bb- 4.dd 4.b-^\	.
.	.	[
8GG/	.	.
=54	=54	=54
4AA/	4.aa 4.ff#X 4.dd 4.a\	.
8A\	.	.
(8G#X\L	(>8a/L	.
8Gn\	8bn 8a/	.
8E-\J	8cc#XJ 8a 8g/	.
=55	=55	=55
4D\)	4dd 4a 4f#X/)	>
8A\	8r	.
4d\	4r	]]
8r	8d/	p
=56	=56	=56
!	!LO:TX:b:i:t=legato	!
4GG/	4dd 4b-\	.
8D\	8dd 8b-\	.
4F#X\	4cc 4a\	.
8D\	8dd 8b-\	.
=57	=57	=57
4GG/	4b- 4g/	.
8D\	(8d/	.
!	!LO:SIC:v:o=4d/	!
4A 4E-\	4c/	.
8B- 8D\	8d/	.
=58	=58	=58
*	*^	*
4.c 4.C\	8a/L	4.e-\)	.
.	8b-/	.	.
.	8cc/J	.	.
4D\	4b- 4g 4d/	8ryy	.
.	.	4ryy	.
8D\	8a 8f#X 8d/	.	.
*	*v	*v	*
!!LO:LB:g=original
=59	=59	=59
4GG/	4b- 4g 4d/	.
8D\	8r	.
4G\	4g/	.
8D\	8g/	.
=60	=60	=60
4GG/	4dd 4b-\	.
8D\	8dd 8b-\	.
4F#X\	4cc 4a\	.
8D\	8dd 8b-\	<
=61	=61	=61
*	*^	*
4GG/	4.b- 4.g/	4r	.
8D\	.	(8d\	.
4E-\	4.cc 4.g/	4c\	.
8G\	.	8e-\	[
*	*v	*v	*
=62	=62	=62
4D\	4.dd 4.b- 4.g 4.d/)	.
8G\	.	.
4D\	(>8aL 8f#X 8c/	.
.	8b- 8f# 8d/	.
8D\	8aJ 8f# 8c/	.
=63	=63	=63
4GG/	4g 4B-/)	>
8D\	8r	.
4G\	4r	.
8r	8r	]
=64||	=64||	=64||
*M2/4	*M2/4	*
!!LO:TX:a:B:t=Listesso tempo.
!	!	!LO:DY:t=%s energico
4B- 4BB-\	4dd 4b- 4f 4d/	f
4A 4AA\	4dd 4cc 4f#X 4d/	.
=65	=65	=65
4G 4GG/	16ddLL 16b- 16g\	.
.	16cc 16a\	.
.	16dd 16b-\	.
.	16ee-JJ 16cc\	.
4F 4FF/	8ddL 8b-\	.
.	8ee-J 8cc\	.
!!LO:PB:g=original
=66	=66	=66
*	*^	*
4C 4CC/	8ddL 8b-/	4en\	.
.	8cc 8a/	.	.
4F 4FF/	8b-/	4e-X\	.
.	8a/J	.	.
*	*v	*v	*
=67	=67	=67
4B- 4BB-\	4b- 4d/	.
4A 4AA\	8fL 8e- 8c/	.
.	8fJ 8e- 8c/	.
=68	=68	=68
4G 4GG\	4dd 4b- 4g 4d/	.
4F#X 4FF#X/	4dd 4cc 4a 4d/	.
=69	=69	=69
*	*^	*
4G 4GG/	16ddLL 16b-\	4ryy	.
.	16cc 16a\	.	.
.	16dd 16b-\	.	.
.	16ee-JJ 16cc\	.	.
4A 4AA\	8dd/L	4f#X\	.
.	8ee-/J	.	.
*	*v	*v	*
=70	=70	=70
8B-L 8BB-\	8ddL 8g/	.
8c 8C\	8cc 8g 8e-/	.
8D\	8b- 8g 8d/	.
8D\J	8aJ 8f#X 8c/	.
=71	=71	=71
4GG/	4g 4d 4B-/	.
4r	8r	.
.	(8g/	p
=72	=72	=72
*^	*	*
!	!	!LO:TX:b:i:t=legato e dolce	!
8d/L	2D\	8dd\L	.
8c#X/	.	8een\	.
8cn/	.	8ff#X 8dd\	.
8B-/J	.	8ggJ 8dd\	.
=73	=73	=73	=73
*	*	*^	*
8A/L	2D\	4.dd/)	8f#X\L	.
8B-/	.	.	8g\	.
8c/	.	.	8a\	.
8A/J	.	(8dd/	8f#\J	.
*	*	*v	*v	*
!!LO:LB:g=original
=74	=74	=74	=74
8B-/L	2D\	8ddL 8g\	.
8A/	.	8een 8cc#X\	.
8d/	.	8ff#X 8ccn 8a\	.
8e-X/J	.	8ggJ 8b- 8g\	.
*v	*v	*	*
=75	=75	=75
*	*^	*
2D\	4.dd/)	8gL 8en\	<
.	.	8a 8f#X\	.
.	.	8b- 8g\	.
.	(8dd/	8ccJ 8a\	[[
=76	=76	=76	=76
4GG/	8gg/L	4dd 4bn\	.
.	8ff/	.	.
4G\	8ee-/	4b 4f\	.
.	8dd/J	.	.
=77	=77	=77	=77
(8c\L	4.cc/)	8e-\L	.
8d\	.	8f\	.
8e-\	.	8g\	.
8c\J)	(8cc/	8e-\J	.
=78	=78	=78	=78
4FF/	8ff/L	4a\	.
.	8ee-/	.	.
4F\	8dd/	4a 4e-\	>
.	8cc/J	.	.
*	*v	*v	*
=79	=79	=79
4B- 4BB-\	4b- 4f 4d/)	]
4r	8r	.
.	8g/	f
=80	=80	=80
!	!LO:TX:b:i:t=marcato	!
4r	4dd^\	.
8r	4dd^\	.
8G\	.	.
!!LO:LB:g=original
=81	=81	=81
!LO:TX:b:i:t=marcato	!	!
4d^\	16dd\LL	.
.	16cc\	.
.	16dd\	.
.	16ee-\JJ	.
4d^\	8dd\L	.
.	8ee-\J	.
=82	=82	=82
16d\LL	8dd\L	.
16c\	.	.
16d\	8cc\	.
16e-\JJ	.	.
8d\L	8b-\	.
8e-\J	8a\J	.
=83	=83	=83
8d\L	4b-\	.
8c\	.	.
8B-\	8g/	.
8A\J	8r	.
=84	=84	=84
8G^\L	4aa 4cc#X 4a^\	.
8A\	.	.
8F^\	4aa 4dd 4a^\	.
8A\J	.	.
=85	=85	=85
8GL 8En\	16aa\LL	.
.	16gg\	.
8A\	16aa\	.
.	16bb-\JJ	.
8F 8D\	8aa\L	.
8A\J	8bb-\J	.
=86	=86	=86
8EnL 8C#X/	8aa\L	.
8A/	8gg\	.
8C# 8AA/	8ff\	.
8A/J	8een\J	.
!!LO:LB:g=original
=87	=87	=87
8D\L	(4ff\	>
8En\	.	.
8F\	8dd\)	.
.	.	]
8G\J	8r	.
=88	=88	=88
!	!	!LO:DY:t=%s staccato
8AL 8F 8D\	8aa\L	p
8A 8F 8D\	8bbn\	.
8A 8F 8D\	8ccc#X\	.
8AJ 8F 8D\	8ddd\J	.
=89	=89	=89
8AL 8F 8D\	[4aa\	<
8Bn 8F 8D\	.	.
8c#X 8F 8D\	8aa\]	.
8dJ 8F 8D\	8r	[
=90	=90	=90
8AL 8F 8D\	8aa\L	p
8A 8F 8D\	8bbn\	.
8A 8F 8D\	8ccc#X\	.
8AJ 8F 8D\	8ddd\J	.
=91	=91	=91
8AL 8F 8D\	4.aa\	<
8Bn 8F 8D\	.	.
8c#X 8F 8D\	.	.
8dJ 8F 8D\	8aa\	[[
=92	=92	=92
8D\L	(8ddd\L	mf
8d\	8ccc\	.
8F#X\	8bb-\	.
8d\J	8aa\J	.
=93	=93	=93
8G\L	4.gg\)	.
8d\	.	.
8B-\	.	.
8d\J	(8gg\	.
!!LO:LB:g=original
=94	=94	=94
8En\L	8ccc\L	.
8c\	8bb-\	.
8B-\	8aa\	.
8c\J	8gg\J	.
=95	=95	=95
8F\L	[4ff\)	.
8c\	.	.
8A\J	8ff\]	.
8r	16r	.
.	16dd\	ff
=96	=96	=96
4A 4AA/	4aa 4a^\	.
4G 4GG/	4aa 4a^\	.
=97	=97	=97
*	*^	*
4F 4FF/	16aa/LL	4cc\	.
.	16gg/	.	.
.	16aa/	.	.
.	16bb-/JJ	.	.
4En 4EEn/	8aa/L	4cc#X\	.
.	8bb-/J	.	.
=98	=98	=98	=98
4E- 4EE-/	8aa/L	4dd\	.
.	8gg/	.	.
4C 4CC/	8ff/	4b-\	.
.	8een/J	.	.
*	*v	*v	*
=99	=99	=99
[4F [4FF/	[4ff [4a\	.
8F] 8FF/]	8ff] 8a\]	.
8r	16r	.
.	16a/	.
=100	=100	=100
4En 4EEn^>/	4een 4cc 4a 4en^>/	.
4F 4FF^>/	4ee 4cc 4a 4e^>/	.
!!LO:LB:g=original
=101	=101	=101
*	*^	*
4F#X 4FF#X/	16een/LL	4a\	.
.	16dd/	.	.
.	16ee/	.	.
.	16ff/JJ	.	.
4G 4GG/	8ee/L	4b-\	.
.	8ff/J	.	.
=102	=102	=102	=102
4G#X 4GG#X/	8een/L	4bn\	.
.	8dd/	.	.
4En 4EEn/	8cc/	4g#X\	.
.	8bnX/J	.	.
*	*v	*v	*
=103	=103	=103
8enL 8c 8A\	4a/	>
8e 8c 8A\	.	.
8e 8c 8A\	4r	]]
8eJ 8c 8A\	.	.
=104	=104	=104
!	!	!LO:DY:t=%s staccato
8enL 8c 8A\	8eeen\L	p
8e 8c 8A\	8fff#X\	.
8e 8c 8A\	8ggg#X\	.
8eJ 8c 8A\	8aaa\J	.
=105	=105	=105
8enL 8c 8A\	[4eeen\	.
8e 8c 8G\	.	.
8e 8c 8F\	8eee\]	.
8eJ 8c 8En\	8r	.
=106	=106	=106
8enL 8c 8A\	8eeen\L	.
8e 8c 8A\	8fff#X\	.
8e 8c 8A\	8ggg#X\	.
8eJ 8c 8A\	8aaa\J	.
=107	=107	=107
8enL 8c 8A\	4.eeen\	.
8e 8c 8G\	.	.
8e 8c 8F\	.	.
8eJ 8c 8En\	8eee\	.
*clefG2	*	*
!!LO:PB:g=original
=108	=108	=108
!	!LO:TX:b:i:t=legato	!
(8A/L	(8aaa\L	.
8a/	8ggg\	.
8c#X/	8fff\	.
8a/J)	8eeen\J	.
=109	=109	=109
*	*^	*
(8d/L	2fff/)	(8ddd\L	.
8a/	.	8ccc\	.
8f/	.	8bbn\	.
8a/J)	.	8aa\J)	.
*	*v	*v	*
=110	=110	=110
(8G/L	(8ggg\L	.
8f/	8fff\	.
8Bn/	8eeen\	.
8f/J)	8ddd\J	.
=111	=111	=111
*	*^	*
!	!LO:SIC:v:o=2eee-/)	!	!
(8c/L	2eeen/)	(8ccc\L	.
8g/	.	8bbn\	.
8en/	.	8aa\	.
8g/J)	.	8gg\J)	.
*	*v	*v	*
=112	=112	=112
(8f#XL 8en 8c/	(8ff#X\L	.
8a/	8gg\	.
8f# 8e 8c/	8aa\	.
8a/J)	8bbn\J	.
=113	=113	=113
(8f#XL 8en 8c/	4ff#X\	.
8a/	.	.
8f# 8e 8c/	8ff#\)	.
8a/J)	8r	.
*	*clefF4	*
=114	=114	=114
(8f#XL 8en 8c/	(8F#X\L	.
8a/	8G\	.
8f# 8e 8c/	8A\	.
8a/J)	8Bn\J	.
!!LO:LB:g=original
=115	=115	=115
(8f#XL 8en 8c/	[4F#X\	.
8a/	.	.
8f# 8e 8c/	4F#\])	.
8a/J)	.	.
*	*clefG2	*
=116	=116	=116
(8f#L 8d#X 8Bn/	(8ff#X\L	.
8a/	8gg\	.
8f# 8d# 8B/	8aa\	.
8a/J)	8bbn\J	.
=117	=117	=117
(8f#L 8d#X 8Bn/	8aa\L	.
8a/	8gg\	.
8f# 8d# 8B/	8ff#X\	.
8a/J)	8gg\J	.
=118	=118	=118
(8enL 8dn 8Bn/	[4een\	.
8g#X/	.	.
8e 8d 8B/	8ee\])	.
8g#/J)	8r	.
=119	=119	=119
(8enL 8d 8B-X/	[4eeen\	.
8g#X/	.	.
8e 8d 8B-/	8eee\]	.
8g#/J)	8r	.
=120	=120	=120
(8enL 8c#X 8A#/	[4gg\	<
8gnX/	.	.
8e 8c# 8A#/	8gg\]	.
8g/J)	8r	.
=121	=121	=121
(8enL 8c#X 8AnX/	[4ggg\	.
8g/	.	.
8e 8c# 8A/	8ggg\]	[
8g/J)	8r	.
!!LO:LB:g=original
=122	=122	=122
[4f#X [>4d [4A/	(8ggg\L	<
.	8fff#X\	.
8f#] 8d] 8A/]	8eeen\	.
8r	8ddd\J	.
=123	=123	=123
[4en [>4Bn [4G/	8ccc#X\L	.
.	8bbn\	.
8e] 8B] 8G/]	8aa\	.
8r	8gg\J	.
=124	=124	=124
4f#X 4d 4A/	8ff#X\L	.
.	8aa\	.
4g 4c#X 4A/	8gg\	.
.	8een\J	.
*clefF4	*	*
=125	=125	=125
4d 4D\	2dd\)	f
4cn 4Cn\	.	.
=126	=126	=126
4Bn 4BBn\	16d/LL	.
.	16c#X/	.
.	16d/	.
.	16e-X/JJ	.
4B-X 4BB-X\	8d/L	.
.	8e-/J	.
=127	=127	=127
4A 4AA\	4d 4c#X/	.
4A- 4AA-X\	4d 4cn/	.
=128	=128	=128
*	*^	*
4G 4GG/	16d/LL	4B-X\	.
.	16c#X/	.	.
.	16d/	.	.
.	16e-/JJ	.	.
4F#X 4FF#X/	8d/L	4A\	.
.	8e-/J	.	.
!!LO:LB:g=original
=129	=129	=129	=129
!!LO:TX:a:i:t=poco rit.
4Fn 4FFn/	(4.d/	4A-X\	.
4E-X 4EE-X/	.	4G\	.
!	!LO:SIC:v:o=8d#X/)	!	!
.	8c#X/)	.	.
*	*v	*v	*
=130	=130	=130
4D 4DD;/	4d 4F#X;/	.
4r	8r	.
.	8d/	p
=131||	=131||	=131||
*M6/8	*M6/8	*
*	*^	*
!!LO:TX:a:B:t=Listesso tempo.
4B-: 4D: 4GG:\	4dd/	4.g 4.d\	.
8r	8dd/	.	.
4A: 4D: 4GG:\	4cc/	4.f#X 4.d\	.
8r	8dd/	.	.
=132	=132	=132	=132
4G 4D 4GG/	4b- 4g 4d/	4.ryy	.
8r	8r	.	.
4F 4FF/	4g/	4.d 4.B-\	.
8r	8g/	.	.
=133	=133	=133	=133
4E- 4EE-/	8aL 8f#X/	4.c\	.
.	8b- 8g/	.	.
8r	8ccJ 8a/	.	.
4D 4DD/	4b- 4g 4d/	4.ryy	.
!	!LO:N:vis=4	!	!
8r	8a 8f#X 8d/	.	.
=134	=134	=134	=134
4G 4GG/	4b- 4g 4d/	4.ryy	.
8r	8r	.	.
4F 4FF/	4g/	4.d 4.B-\	.
8r	8g/	.	.
*	*v	*v	*
=135	=135	=135
4En 4EEn/	4dd 4b- 4g 4d/	.
8r	8dd\	.
4E-X 4EE-X/	4cc 4g 4c/	.
8r	8dd\	.
!!LO:LB:g=original
=136	=136	=136
*	*^	*
4D 4DD/	4b- 4g 4d/	4.ryy	.
8r	8d/	.	.
4En 4EEn/	4c/	4.A\	.
8r	8d/	.	.
*	*v	*v	*
=137	=137	=137
!!LO:TX:a:i:t=poco meno mosso.
4F 4FF/	4c 4A/	.
8r	8r	.
4D 4DD/	4f 4Bn 4A/	.
8r	8r	.
=138	=138	=138
4.En 4.EEn/	4.en 4.c 4.A/	.
N(>8E/L	4r	p
8A/	.	.
8c/J	8r	.
=139	=139	=139
2.r	8en/L	.
.	8a/	.
.	8cc/J	.
.	8een\L	.
.	8aa\	.
.	8ccc\J	.
=140	=140	=140
2.r	4eeen\N)	.
.	8r	.
.	4r	.
.	8r	.
=141	=141	=141
4.D 4.DD/	4.f 4.d 4.A/	p
N(>8F/L	4r	.
8A/	.	.
8d/J	8r	.
=142	=142	=142
2.r	8f/L	.
.	8a/	.
.	8dd/J	.
.	8ff\L	.
.	8aa\	.
.	8ddd\J	.
!!LO:LB:g=original
=143	=143	=143
2.r	4fff\N)	.
.	8r	.
.	4r	.
!	!	!LO:DY:t=più %s
.	8r	p
*	*clefF4	*
=144	=144	=144
4.AA 4.AAA/	4.c#X 4.A 4.En\	.
4r	(8A\L	.
.	8c#\	.
8r	8en\J	.
*	*clefG2	*
=145	=145	=145
2.r	8a\L	.
.	8cc#X\	.
.	8een\J	.
.	8aa\L	.
.	8ccc#X\	.
.	8eeen\J	.
=146	=146	=146
2.r;	4aaa\)	.
.	8r;	.
.	(4f/	p
.	8en/)	.
=147||	=147||	=147||
*k[b-]	*k[b-]	*
*M3/4	*M3/4	*
*	*^	*
!!LO:TX:a:B:t=Andante.
!	!LO:TX:b:i:t=legato	!	!
4D 4DD/	4d 4A 4F/	2ryy	.
4BB- 4BBB-/	4f 4d 4B- 4F/	.	.
4F 4FF/	8aL 8f/	4c 4A\	<
.	8a/J	.	.
=148	=148	=148	=148
8EL 8EE/	8gL 8c#X/	4A\	.
8DJ 8DD/	8fJ 8d/	.	[
4C#X 4CC#X/	4e/	4A\	.
4D 4DD/	8f/L	4A\	.
.	8e/J	.	.
!!LO:PB:g=original
=149	=149	=149	=149
4GG 4GGG/	4d/	4B-\	.
4GG#X 4GGG#X/	8f/L	4Bn\	>
.	8e/	.	.
4AA 4AAA/	8d/	4A\	.
!	!LO:SIC:v:o=8d#X/J	!	!
.	8c#X/J	.	.
=150	=150	=150	=150
4D 4DD/	4d 4F/	4ryy	.
.	.	.	]
4r	4r	4ryy	.
4C 4CC/	8f/L	4A 4F\	.
.	8e/J	.	.
=151	=151	=151	=151
4BB- 4BBB-/	4d 4B- 4F/	4ryy	<
4AA-X 4AAA-X/	4f 4c 4F/	4ryy	.
4GG 4GGG/	8a/L	4f 4Bn\	.
.	8a/J	.	[
=152	=152	=152	=152
4C 4CC/	8gL 8e/	4B-X\	.
.	8f/J	.	.
4C#X 4CC#X/	4e/	4B-\	.
4D 4DD/	8f/L	4A\	.
.	8e/J	.	.
=153	=153	=153	=153
4GG 4GGG/	4d/	4B-\	.
4GG#X 4GGG#X/	8f/L	4Bn\	>
.	8e/	.	.
4AA 4AAA/	8d/	4G\	.
!	!LO:SIC:v:o=8d#X/J	!	!
.	8c#X/J	.	.
*	*v	*v	*
=154	=154	=154
4D 4DD/	4d 4F/	.
.	.	]
4r	4r	.
4r	8f/L	p
.	8g/J	.
=155	=155	=155
2F 2FF/	4a 4f 4c/	.
.	4a 4f 4c/	.
4F 4FF/	8b-L 8f 8d/	.
.	8aJ 8f 8c/	.
!!LO:LB:g=original
=156	=156	=156
*	*^	*
2C 2CC/	4a 4f/	2c\	.
.	4g 4e/	.	.
4C#X 4CC#X/	8a/L	4e 4A\	.
.	8g/J	.	.
=157	=157	=157	=157
4D 4DD/	4f 4d 4A/	2ryy	.
4FF 4FFF/	4a 4d 4A/	.	.
4GG 4GGG/	8g/L	4Bn\	.
.	8f/J	.	.
*	*v	*v	*
=158	=158	=158
4AA 4AAA/	[4e [4c#X/	.
4BB-X 4BBB-X/	8e] 8c#/]	.
.	8r	.
8AAL 8AAA/	8fL 8d/	.
8GGJ 8GGG/	8eJ 8c#X 8A/	.
=159	=159	=159
*	*^	*
4FF 4FFF/	4d 4A/	4ryy	<
4AA 4AAA/	4f 4c/	4ryy	.
4BB- 4BBB-/	8a/L	4d 4A\	.
.	8a/J	.	[
=160	=160	=160	=160
4BBn 4BBBn/	8g/L	4d 4G\	.
.	8f/J	.	.
4C#X 4CC#X/	4e 4A/	2ryy	.
8DL 8DD/	8fL 8A/	.	.
8EJ 8EE/	8eJ 8c#X 8A/	.	.
=161	=161	=161	=161
4F 4FF/	4d 4A/	4ryy	>
4G 4GG/	8f/L	4B-\	.
.	8e/	.	.
4G 4GG/	8d/	4A\	.
.	8c#X/J	.	.
*	*v	*v	*
=162	=162	=162
[4F [4D\	[4d [4A/	.
8F] 8D\]	8d] 8A/]	]
8r	8r	.
4r	8ffL 8f\	mf
.	8ggJ 8g\	.
!!LO:LB:g=original
=163	=163	=163
(16FF\LL	4aa 4ff 4cc 4a\	.
16C\	.	.
16A\	.	.
16F\JJ)	.	.
(16C\LL	4aa 4ff 4cc 4a\	.
16F\	.	.
16A\	.	.
16F\JJ)	.	.
(16C\LL	8bb-L 8ff 8dd\	.
16F\	.	.
16A\	8aaJ 8ff 8cc\	.
16F\JJ)	.	.
=164	=164	=164
*	*^	*
!LO:TX:a:i:t=sempre legato	!	!	!
(16C\LL	4aa 4ee/	2cc\	.
16E\	.	.	.
16A\	.	.	.
16E\JJ)	.	.	.
(16C\LL	4gg 4ee/	.	.
16G\	.	.	.
16B-\	.	.	.
16G\JJ)	.	.	.
(16C#X\LL	8aa/L	4ee 4a\	.
16G\	.	.	.
16A\	8gg/J	.	.
16G\JJ)	.	.	.
=165	=165	=165	=165
(16D\LL	4ff 4dd 4a\	2ryy	.
16F\	.	.	.
16A\	.	.	.
16F\JJ)	.	.	.
(16FF\LL	4aa 4dd 4a\	.	.
16D\	.	.	.
16A\	.	.	.
16F\JJ)	.	.	.
(16GG\LL	8gg/L	4bn\	.
16D\	.	.	.
16G\	8ff/J	.	.
16D\JJ)	.	.	.
*	*v	*v	*
=166	=166	=166
(16AA\LL	[4ee [4cc#X [4a\	.
16E\	.	.
16G\	.	.
16E\JJ)	.	.
(16BB-X\LL	8ee] 8cc#] 8a\]	.
16E\	.	.
16G\	8r	.
16E\JJ)	.	.
(16AA/LL	8ffL 8dd 8a\	.
16BB-/	.	.
16GG/	8eeJ 8cc# 8a\	.
16AA/JJ)	.	.
!!LO:LB:g=original
=167	=167	=167
*	*^	*
(16FF\LL	4dd 4a 4d/	2ryy	.
16D\	.	.	.
16A\	.	.	<
16F\JJ)	.	.	.
(16AA\LL	4ff 4cc 4f/	.	.
16F\	.	.	.
16A\	.	.	.
16F\JJ)	.	.	.
(16BB-\LL	8aa/L	4dd 4a\	.
16F\	.	.	.
16A\	8aa/J	.	[[
16F\JJ)	.	.	.
=168	=168	=168	=168
(16BBn\LL	8gg/L	4dd 4g\	.
16F\	.	.	.
16G\	8ff/J	.	.
16F\JJ)	.	.	.
(16C#X\LL	4ee 4a\	2ryy	.
16E\	.	.	.
16G\	.	.	.
16E\JJ)	.	.	.
(16D\LL	8ffL 8a\	.	.
16A\	.	.	.
16E\	8eeJ 8cc#X 8a\	.	.
16A\JJ)	.	.	.
=169	=169	=169	=169
(16F\LL	4dd 4a\	4ryy	.
16A\	.	.	.
16d\	.	.	.
16A\JJ)	.	.	.
(16G\LL	8ff/L	4b-\	>
16B-\	.	.	.
16d\	8ee/	.	.
16B-\JJ)	.	.	.
(16A\LL	8dd/	4g\	.
16d\	.	.	.
16A\	8cc#X/J	.	.
16e\JJ)	.	.	.
*	*v	*v	*
=170	=170	=170
(16d\LL	[4dd [4f/	.
16G#X\	.	.
16A\	.	.
16F\JJ	.	.
8D\)	8dd] 8f/]	]
8r	8r	.
4r	4r	.
!!LO:LB:g=original
=171||	=171||	=171||
*k[f#c#]	*k[f#c#]	*
!!LO:TX:a:B:t=Andantino.
2.r	8.a/L	p
.	16g#X/K	.
.	8.a/	.
.	16g#/K	.
.	8.a/	.
.	16g#/Jk	.
=172	=172	=172
2.r	8.a/L	.
.	16g#X/K	.
.	8.a/	.
.	16g#/K	.
.	8.a/	.
.	16gn/Jk	.
=173	=173	=173
!	!LO:TX:b:i:t=legato	!
4DD/	8f#/L	.
.	8a/J	.
4d 4A 4F# 4D\	4.ff#\	.
4d 4A 4F# 4D\	.	.
.	8ee\	.
=174	=174	=174
4DD/	8.dd/L	.
.	16f#/Jk	.
4d 4A 4F# 4D\	4.a/	.
4d 4A 4F# 4D\	.	.
.	8dd\	.
=175	=175	=175
4AA/	8cc#/L	.
.	8e/	.
4c# 4A 4G 4E\	8g/	.
.	8a/	.
4c# 4A 4G 4E\	8cc#/	.
.	8ee/J	.
=176	=176	=176
4DD/	8.dd/L	.
.	16f#/Jk	.
4d 4A 4F# 4D\	4.a/	.
4d 4A 4F# 4D\	.	.
.	8g/	.
=177	=177	=177
4DD/	8f#/L	.
.	8a/J	.
4d 4A 4F# 4D\	4.ff#\	.
4d 4A 4F# 4D\	.	.
.	8ee\	.
!!LO:LB:g=original
=178	=178	=178
4DD/	8.dd/L	.
.	16f#/Jk	.
4d 4A 4F# 4D\	4.a/	.
4d 4A 4F# 4D\	.	.
.	8dd\	.
=179	=179	=179
4AA/	8cc#/L	.
.	8e/	.
4c# 4A 4G 4E\	8g/	.
.	8a/	.
4c# 4A 4G 4E\	8cc#/	.
.	8ee/J	.
=180	=180	=180
4DD/	4dd\	.
4d 4A 4F# 4D\	4r	.
4r	4ff#\	mf
=181	=181	=181
4EE/	8ee\L	.
.	8dd\J	.
4d 4G#X 4E\	4.b\	.
4d 4G# 4E\	.	.
.	8g#X/	.
=182	=182	=182
4AA/	8a\L	.
.	8cc#\J	.
4c# 4A 4E\	4.ee\	.
4c# 4A 4E\	.	.
.	8ee\	.
=183	=183	=183
4EE/	8ff#/L	.
.	8ee/	.
4d 4G#X 4E\	8dd/	.
.	8b/	.
4d 4G# 4E\	8g#X/	.
.	8b/J	.
=184	=184	=184
4AA/	8a/L	.
.	8cc#/J	.
4c# 4A 4E\	4.aa\	.
4c# 4A 4E\	.	.
.	8ff#\	.
!!LO:PB:g=original
=185	=185	=185
4EE/	8ee\L	.
.	8dd\J	.
4d 4G#X 4E\	4.b\	.
4d 4G# 4E\	.	.
.	8g#X/	.
=186	=186	=186
4AA/	8a\L	.
.	8cc#\J	.
4c# 4A 4E\	4.ee\	.
4c# 4A 4E\	.	.
.	8ee#X\	.
=187	=187	=187
4DD/	8gg#X\L	.
.	8ff#\	.
4d 4F# 4D\	8een\	.
.	8dd\	.
4d 4G#X 4E\	8cc#\	.
.	8b\J	>
=188	=188	=188
!	!LO:TX:b:i:t=rit.	!
4AA/	8.a/L	.
.	16g#X/K	.
4c# 4A 4E\	8.a/	.
.	16g#/K	.
4r	8.a/	.
.	16gn/Jk	]]
=189	=189	=189
4DD/	8f#/L	p
!	!LO:TX:b:i:t=a tempo	!
.	8a/J	.
4d 4A 4F# 4D\	4.ff#\	.
4d 4A 4F# 4D\	.	.
.	8ee\	.
=190	=190	=190
4DD/	8.dd/L	.
.	16f#/Jk	.
4d 4A 4F# 4D\	8a\L	.
.	8bb 8ff#\	.
4d 4A 4F# 4D\	8aa 8ff#\	.
.	8dd\J	.
!!LO:LB:g=original
=191	=191	=191
4AA/	8cc#/L	.
.	8e/	.
4c# 4A 4G 4E\	8g/	.
.	8a/	.
4c# 4A 4G 4E\	8cc#/	.
.	8ee/J	.
=192	=192	=192
4DD/	8.dd/L	.
.	16f#/Jk	.
4d 4A 4F# 4D\	8a\L	.
.	8bb 8ff#\	.
4d 4A 4F# 4D\	8aa 8ff#\	.
.	8g\J	.
=193	=193	=193
4DD/	8f#/L	.
.	8a/J	.
4d 4A 4F# 4D\	4.ff#\	.
4d 4A 4F# 4D\	.	.
.	8ee\	.
=194	=194	=194
4DD/	8.dd/L	.
.	16f#/Jk	.
4d 4A 4F# 4D\	8a\L	.
.	8bb 8ff#\	.
4d 4A 4F# 4D\	8aa 8ff#\	.
.	8dd\J	.
=195	=195	=195
4AA/	8cc#/L	.
.	8e/	.
4c# 4A 4G 4E\	8g/	.
.	8a/	.
4c# 4A 4G 4E\	8cc#/	.
.	8ee/J	.
=196	=196	=196
4DD/	4dd\	.
4d 4A 4F# 4D\	4r	.
4r	4a/	.
!!LO:LB:g=original
=197||	=197||	=197||
*k[]	*k[]	*
!!LO:TX:a:B:t=Allegretto.
4e 4c 4A\	(8ee\L	pp
.	8ff\J	.
4r	4ee\	.
4f 4d 4A\	4dd\	.
=198	=198	=198
4e 4c 4A\	2ee\	.
4r	.	.
4e 4c 4A\	4a/)	.
=199	=199	=199
4e 4d 4G#X\	(8b\L	.
.	8cc\J	.
4r	4dd\	.
4e 4d 4G#\	4ee\	.
=200	=200	=200
4e 4c 4A\	4cc\	.
4e 4d 4B\	4b\	.
4e 4c\	4a/)	.
=201	=201	=201
4e 4c 4A\	(8ee\L	.
.	8ff\J	.
4r	4ee\	.
4f 4d 4A\	4dd\	.
=202	=202	=202
4e 4c 4A\	2ee\	.
4r	.	.
4e 4c 4A\	4a/)	.
=203	=203	=203
4e 4d 4G#X\	(4b\	.
4r	8b\L	.
.	8dd\	.
4d 4G# 4E\	8cc\	.
.	8b\J	.
=204	=204	=204
4c 4A\	4a/)	.
4r	4r	.
4r	(>4a/	.
!!LO:LB:g=original
=205	=205	=205
*	*^	*
4G 4BB\	8gnX/L	4d\	.
.	8a/J	.	.
4G 4C\	4g 4e/	2ryy	.
4G#X 4D\	4f 4d/	.	.
*	*v	*v	*
=206	=206	=206
2A 2E\	2e 2c/	<
4A 4F\	4a 4c/)	[[
=207	=207	=207
*	*^	*
2E\	(8bL 8g#X/	2e\	.
.	8ccJ 8a/	.	.
.	4dd 4b/	.	.
4E\	4ee 4cc/	4e\	.
=208	=208	=208	=208
4AA/	4cc 4a 4e/	2.ryy	>
4BB/	4b 4g#X 4e/	.	.
4C/	4a 4e/)	.	]]
=209	=209	=209	=209
4G 4BB\	(8gn/L	4d\	.
.	8a/J	.	.
4A 4C#X\	4g/	4e\	.
4A 4D\	4f/	4d\	<
*	*v	*v	*
=210	=210	=210
2A 2E\	2e 2c/	.
4A 4F\	4a 4c/)	[
=211	=211	=211
4G#X 4E\	(>4b 4d/	.
4r	8bL 8d/	>
.	8dd 8f/	.
4G# 4E\	8cc 8e/	.
.	8bJ 8d/	.
=212	=212	=212
2A 2AA\	2a 2c/)	.
.	.	]
4r	4r	.
=213	=213	=213
*	*brackettup	*
!	!LO:TX:t=P:problem:t. 213-220 - brackettup	!
4e 4c 4A\	(12ee\L	pp
.	12ff\	.
.	12ee\J	.
4r	12a\L	.
.	12cc\	.
.	12ee\J	.
4f 4d 4A\	12dd\L	.
.	12ee\	.
.	12dd\J	.
!!LO:LB:g=original
=214	=214	=214
4e 4c 4A\	12cc\L	.
.	12dd\	.
.	12cc\J	.
4r	12b\L	.
.	12cc\	.
.	12b\J	.
4e 4c 4A\	12a\L	.
.	12b\	.
.	12a\J)	.
=215	=215	=215
4d 4G#X\	(12b/L	.
.	12e/	.
.	12cc/J	.
4r	12dd/L	.
.	12e/	.
!	!	!
.	12dd/J	.
4d 4G#\	12ee/L	.
.	12b/	.
.	12dd/J	.
=216	=216	=216
4c 4A\	12cc/L	.
.	12a/	.
.	12cc/J	.
4d 4B\	12b/L	.
.	12g#X/	.
.	12b/J	.
4e 4c\	12a/L	.
.	12cc/	.
.	12dd/J)	.
=217	=217	=217
4e 4c 4A\	(12ee\L	.
.	12ff\	.
.	12ee\J	.
4r	12a\L	.
.	12cc\	.
.	12ee\J	.
4f 4d 4A\	12dd\L	.
.	12ee\	.
.	12dd\J	.
=218	=218	=218
4e 4c 4A\	12cc\L	.
.	12dd\	.
.	12cc\J	.
4r	12b\L	.
.	12cc\	.
.	12b\J	.
4e 4c 4A\	12a\L	.
.	12b\	.
.	12a\J)	.
!!LO:LB:g=original
=219	=219	=219
4d 4G#X\	(12b/L	.
.	12e/	.
.	12b/J	.
4r	12dd/L	.
.	12e/	.
.	12cc/J	.
4d 4G# 4E\	12b/L	.
.	12e/	.
.	12b/J	.
=220	=220	=220
[2c [2A\	12a/L	.
.	12e/	.
.	12a/J	.
.	12cc/L	.
.	12ee/	.
.	12cc/J	.
8c] 8A\]	8a/)	.
8r	8r	.
=221	=221	=221
2e 2c#X 2A 2G\	(8ee\L	mf
.	8ff\J	.
.	4ee\	.
4d 4A 4F\	4dd\	.
=222	=222	=222
2c 2A 2E\	2ee\	.
4B 4A 4D#X\	4a/)	.
=223	=223	=223
4B 4G#X 4E\	(<8g#X/L	>
.	8a/J	.
4r	4b\	.
4d 4B 4E\	4g#/	.
=224	=224	=224
*^	*	*
2.c/	4A\	2a/)	.
.	4Gn\	.	]]
.	4F\	4r	.
*v	*v	*	*
=225	=225	=225
2c#X 2A 2E\	(8ee\L	mf
.	8ff\J	.
!	!LO:TX:b:i:t=ritard.	!
.	4ee\	.
4d 4A 4F#X\	4dd\	.
=226	=226	=226
2.d 2.B-X 2.G\	2gg\	.
.	4dd\)	.
!!LO:PB:g=original
=227||;<	=227||;	=227||
!!LO:TX:a:i:t=più ritard.
4e 4E\	8ccL 8a/	.
.	8ddJ 8bn/	>
4r	8cc 8a/	.
.	8r	.
8d 8E\	8b 8g#X/	.
.	.	]
8r	8r	.
=228	=228	=228
2c 2A\	2a/	pp
4r	4r	.
=229||	=229||	=229||
*M2/4	*M2/4	*
!!LO:TX:a:B:t=Moderato marciale.
!	!	!LO:DY:t=%s marcato
8AA/L	2r	mf
16r	.	.
16AA/K	.	.
8AA/	.	.
8AA/J	.	.
=230	=230	=230
4E^\	2r	.
4E^\	.	.
*	*clefF4	*
=231	=231	=231
2E-X 2EE-X/	8F^\L	<
.	16r	.
.	16F\K	.
.	8F\	.
.	8F\J	.
=232	=232	=232
*	*^	*
2D 2DD/	4c^/	2F\	[
.	4c^/	.	.
=233	=233	=233	=233
2D-X 2DD-X/	8c^/L	2F\	f
.	16rc	.	.
.	16B-X/K	.	.
.	8A-X/	.	.
.	8G/J	.	.
!!LO:LB:g=original
=234	=234	=234	=234
8C 8CC/	8A-X 8F\	4ryy	.
8r	8r	.	.
4BB-X 4BBB-X/	8F/L	4D-X\	>
.	16rA	.	.
.	16G/Jk	.	.
*	*v	*v	*
=235	=235	=235
8EE-X/	8A-X 8C\	.
8r	8r	.
.	8qc/	.
8EE-/L	8B-XL 8G 8D-X\	.
16rC	16r	.
16AA-XJk 16AAA-X/	16A-Jk 16C\	.
=236	=236	=236
4AA-X 4AAA-X/	4A-X 4C\	] p
4r	4r	.
*	*clefG2	*
=237	=237	=237
!	!	!LO:DY:rj
2r	8A-X/L	mf
.	16rf	.
.	16A-/K	.
.	8A-/	.
.	8A-/J	.
=238	=238	=238
2r	4e-X^>/	.
.	4e-^>/	.
=239	=239	=239
2d 2D\	8en^>/L	<
.	16ra	.
.	16e/K	.
.	8e/	.
.	8e/J	.
=240	=240	=240
*	*^	*
2c#X 2C#X\	4bn^/	2e\	[
.	4b^/	.	.
!!LO:LB:g=original
=241	=241	=241	=241
2cn 2Cn\	8b/L	2e\	f
.	16r	.	.
.	16a/K	.	.
.	8g/	.	.
.	8f#X/J	.	.
=242	=242	=242	=242
8B 8BB\	8g 8e/	4ryy	.
8r	8r	.	.
4A 4AA\	8e/L	4c\	>
.	16r	.	.
.	16f#X/Jk	.	.
*	*v	*v	*
=243	=243	=243
8BB/	8g 8e 8B/	.
8r	8r	.
8BB 8BBB/	8f#X 8d#X 8A/	]
8r	8r	.
=244||	=244||	=244||
*k[f#]	*k[f#]	*
*	*^	*
2C 2CC/	8e/L	2G\	p
.	16r	.	.
.	16e/K	.	.
.	8e/	.	.
.	8e/J	.	.
=245	=245	=245	=245
2BB 2BBB/	4e^/	2B 2G\	.
.	4e^/	.	.
=246	=246	=246	=246
2BB-X 2BBB-X/	8e^/L	2c 2G\	.
.	16r	.	.
.	16e/K	.	.
.	8e/	.	.
.	8e/J	.	.
!!LO:LB:g=original
=247	=247	=247	=247
2AA 2AAA/	4e^/	2c 2F#\	.
.	4e^/	.	.
*	*v	*v	*
=248	=248	=248
8GG 8GGG/	8e 8B 8G/	.
8r	8r	.
8FF# 8FFF#/	8d#X 8B 8A/	>
8r	8r	.
=249	=249	=249
4EE 4EEE/	4e 4B 4G/	.
4B 4G 4E\	4r	.
.	.	]
=250	=250	=250
4EE 4EEE/	8e^>/L	.
.	16ra	.
.	16e/K	.
4G 4E 4C\	8e/	.
.	8e/J	.
=251	=251	=251
4EE 4EEE/	4b^\	.
4B 4G 4E 4BB\	4b^\	.
=252	=252	=252
4AA 4AAA/	8cc^\L	.
.	16r	.
.	16cc\K	.
4c 4A 4F# 4E\	8cc\	.
.	8cc\J	.
=253	=253	=253
4GG 4GGG/	2b\	.
4B 4G 4E\	.	.
=254	=254	=254
8D/L	8aL 8f# 8d/	.
16r	16r	.
16BB/Jk	(>16gJk [16d/	.
8D\L	8a 8f# 8d/])L	.
16r	16r	.
(16G\Jk	(>16b [16d/J	.
!!LO:LB:g=original
=255	=255	=255
8A\L)	8cc 8d/])L	.
16r	16r	.
(16G\Jk	(>16b [16d/J	.
8F#\L)	8a 8d/])L	.
16r	16ra	.
(16E\Jk	([16g 16d/J	.
=256	=256	=256
8AA/)	8g] 8c/)	.
8r	8r	.
8BB/	8f# 8d#/	.
8r	8r	.
=257	=257	=257
4E\	4e 4B 4G/	.
4EE/	4r	.
=258	=258	=258
*	*^	*
4C 4CC/	8ee^/L	2g 2e\	f
.	16rdd	.	.
.	16ee/K	.	.
4C#X 4CC#X/	8ee/	.	.
.	8ee/J	.	.
=259	=259	=259	=259
4D 4DD/	8dd/L	4f#\	.
.	16rff	.	.
.	16cc#X/Jk	.	.
4E 4EE/	8b/L	4g\	.
.	16rff	.	.
.	16cc#/Jk	.	.
*	*v	*v	*
=260	=260	=260
8F# 8FF#/	8dd 8b 8f#/	.
8r	8r	.
8FF# 8FFF#/	8cc#X 8a# 8e/	>
8r	8r	.
!!LO:LB:g=original
=261	=261	=261
[4BB [4BBB/	[4b [4f# [4d/	.
8BB] 8BBB/]	8b] 8f#] 8d/]	]
8r	8r	.
=262	=262	=262
8G\L	8bL 8d/	f
16rE	16r	.
(16A\Jk	(>16ccnJk [16d/	.
8B\L)	8ddL 8d/])	.
16rE	16r	.
(16G\Jk	(>16bJk [16d/	.
=263	=263	=263
8A\L)	8ccL 8d/])	.
16rE	16r	.
(16B\Jk	(>16ddJk [16d/	.
8A\L)	8ccL 8d/])	.
16rE	16r	.
(16G\Jk	([16bJk 16d/	.
=264	=264	=264
8C#X/)	8b] 8g 8e/)	.
8r	8r	>
8D\	8a 8f# 8cn/	.
8r	8r	.
=265	=265	=265
4G\	4b 4g 4d 4B/	]
4GG/	4r	.
=266	=266	=266
*	*^	*
4E\	8g/L	4e 4B\	mf
.	16rcc	.	.
.	16a/Jk	.	.
4D\	8b/L	4e 4B\	.
.	16rcc	.	.
!	!LO:TX:t=P:problem:brak początku łuku	!	!
.	(16g/Jk	.	.
*	*v	*v	*
!!LO:PB:g=original
=267	=267	=267
4C/	4a 4f# 4e 4c/)	.
4AA/	4a 4f# 4e 4c/	.
=268	=268	=268
*	*^	*
4BB/	8f#/L	4d#X 4B\	.
.	16r	.	.
.	(16g/Jk	.	.
4BB 4BBB/	8a/L)	4d# 4B\	.
.	16r	.	.
.	(16f#/Jk	.	.
*	*v	*v	*
=269	=269	=269
4E 4EE/	4e/)	.
4D 4DD/	4r	.
=270	=270	=270
*	*^	*
4C 4CC/	8e^/L	4G\	.
.	16r	.	.
.	16e/K	.	.
4BB 4BBB/	8e/	4G\	<
.	8e/J	.	.
*	*v	*v	*
=271	=271	=271
4AA 4AAA/	4b 4f# 4d#X 4B/	.
4GG 4GGG/	4b 4g 4e 4B/	[
=272	=272	=272
*	*^	*
4FF# 4FFF#/	8cc^/L	4f# 4e 4c\	.
.	16rdd	.	.
.	16cc/K	.	.
4D 4DD/	8cc/	4f# 4dn\	>
.	8cc/J	.	.
=273	=273	=273	=273
2G 2GG/	2b 2B/	4f#\	.
.	.	4e\	]
*	*v	*v	*
=274	=274	=274
8D/L	8aL 8f# 8d/	.
16r	16r	.
(<16BB/Jk	(>16gJk [16d/	.
8D\L)	8aL 8f# 8d/])	.
16r	16r	.
(16G\Jk	(>16bJk [16d/	.
!!LO:LB:g=original
=275	=275	=275
8A\L)	8ccL 8d/])	.
16r	16r	.
(16G\Jk	(>16bJk [16d/	.
8F#\L)	8aL 8d/])	.
16r	16r	.
(16E\Jk	([16gJk 16d/	.
=276	=276	=276
8AA/)	8g] 8c/)	>
8r	8r	.
8BB/	8f# 8d#X/	.
.	.	]
8r	8r	.
=277	=277	=277
4E\	4e 4B 4G/	p
4EE/	4r	.
=278||	=278||	=278||
*k[f#c#]	*k[f#c#]	*
!!LO:TX:a:B:t=Allegro.
!	!	!LO:DY:t=%s staccato e leggiero
8BB\L	8bb\L	pp
8F#\	8bb\	.
8B\	8bb\	.
8F#\J	8bb\J	.
=279	=279	=279
8C#\L	8bb\L	.
8F#\	8aa#X\	.
8A#X\	8gg#X\	.
8F#\J	8ff#\J	.
=280	=280	=280
8D\L	8bb\	.
8F#\	8r	.
8B\	8bb\	.
8F#\J	8r	.
=281	=281	=281
8BB\L	2ddd^\	.
8F#\	.	.
8B\	.	.
8F#\J	.	.
!!LO:LB:g=original
=282	=282	=282
8C#\L	8eee\L	.
8G\	8eee\	.
8B\	8eee\	.
8G\J	8eee\J	.
=283	=283	=283
8D\L	8eee\L	.
8F#\	8ddd\	.
8B\	8ccc#\	.
8F#\J	8bb\J	.
=284	=284	=284
8B 8G 8E\	8ddd\L	.
8r	8ccc#\	.
8e 8c# 8F#\	8bb\	.
8r	8aa#X\J	.
=285	=285	=285
8BB\L	4bb\	.
8F#\	.	.
8B\	4r	.
8F#\J	.	.
=286	=286	=286
8AA#X\L	8ff#\L	.
8F#\	8ff#\	.
8c#\	8ff#\	.
8F#\J	8ff#\J	.
=287	=287	=287
8BB\L	4ff# 4dd\	<
8F#\	.	.
8B\	8r	.
8F#\J	8ff# 8dd#X 8a\	[
=288	=288	=288
8EE/L	(8ggL 8ee 8b\	.
8BB/	8ff#\J)	.
8G/	(8eeL 8b 8g\	.
8BB/J	8dd\J)	.
!!LO:LB:g=original
=289	=289	=289
8GG\L	4cc# 4g 4e/	>
8E\	.	.
8B\	8r	.
8E\J	8cc# 8g 8e/	]
=290	=290	=290
8C#\L	8eeL 8b 8g/	.
8G\	8ee/J	.
8F#\	8eeL 8a#X 8e/	.
8A#X\J	8ee/J	.
=291	=291	=291
8BB\L	8eeL 8b 8f#/	.
8F#\	8dd/	.
8B\	8cc#/	.
8F#\J	8b/J	.
=292	=292	=292
8B 8G 8E\	(>8ddL 8g/	.
8r	8cc#/J)	.
8e 8c# 8F#\	(>8bL 8f#/	.
8r	8a#X/J)	.
=293	=293	=293
8BB\L	4b/	.
8F#\	.	.
8B\	4r	.
8F#\J	.	.
=294	=294	=294
!LO:N:vis=4	!LO:TX:b:i:t=poco rit.	!
8BB/	8r	.
8r	8b\L	.
4r	8b\	.
.	8b\J	.
=295||	=295||	=295||
*k[f#]	*k[f#]	*
*	*^	*
!!LO:TX:a:B:t=Moderato.
!	!	!	!LO:DY:rj
4E 4EE/	(4g/	8rB	p
.	.	8e 8B\	.
4F# 4FF#/	4a/	8rB	.
.	.	8d#X 8B\	.
!!LO:LB:g=original
=296	=296	=296	=296
2G 2GG/	4.b/)	8rc	.
.	.	8e 8B\	.
.	.	4e 4B\	.
.	8b/	.	.
=297	=297	=297	=297
4E 4EE/	(4g/	8rB	.
.	.	8e 8B\	.
4F# 4FF#/	4a/	8rB	.
.	.	8d#X 8B\	.
=298	=298	=298	=298
4G 4GG/	4b/)	8rB	.
.	.	8e 8B\	.
!	!LO:TX:a:i:t=sempre legato.	!	!
4C/	8e^/L	4c\	.
.	16f#/L	.	.
.	16g/JJ	.	.
=299	=299	=299	=299
4AA/	8a/L	4e 4c\	<
.	8a/	.	.
4C/	8a/	4e 4c\	.
.	8a/J	.	[
*	*v	*v	*
=300	=300	=300
2D 2DD/	8aL 8f# 8d/	.
.	8f# 8d/	.
.	8g 8e/	.
.	8aJ 8f#/	.
=301	=301	=301
*	*^	*
!	!LO:TX:b:i:t=ritard.	!	!
4GG 4GGG/	8b/L	4d\	>
.	8b/	.	.
4AA 4AAA/	8a/	4c\	.
.	8g/J	.	]
*	*v	*v	*
=302	=302	=302
8BBL 8BBB/	4f# 4d#X 4A/	.
8C/	.	.
8BB/	4r	.
8AA/J	.	.
!!LO:LB:g=original
=303	=303	=303
*	*^	*
!	!LO:TX:b:i:t=a tempo	!	!LO:DY:rj
4GG/	8b/L	4dn 4B\	p
.	8b/J	.	.
4C 4CC/	8b^/L	4e 4c\	.
.	16a/L	.	.
.	16g/JJ	.	.
=304	=304	=304	=304
4F# 4FF#/	4a/	4e 4c\	.
4BB 4BBB/	8a^/L	4d#X 4B\	.
.	16g/L	.	.
.	16f#/JJ	.	.
=305	=305	=305	=305
4C 4CC/	8e/L	4G\	.
.	8f#/	.	.
4BB 4BBB/	8e/	4A\	.
.	8d#X/J	.	.
*	*v	*v	*
=306	=306	=306
4E 4EE/	4e 4G/	.
!	!LO:TX:t=P:problem:brackettup	!
!	!LO:TUP:a	!
4r	12ff#\L	.
.	12gg\	.
.	12aa\J	.
=307	=307	=307
*	*^	*
4d 4G\	8bb/L	4gg 4dd\	pp
.	8bb/J	.	.
4e 4c\	8bb^/L	4ee 4cc\	.
.	16aa/L	.	.
.	16gg/JJ	.	.
=308	=308	=308	=308
4f#\	4aa 4ee 4cc\	4ryy	.
4B\	8aa^/L	4dd#X 4b\	.
.	16gg/L	.	.
.	16ff#/JJ	.	.
*	*v	*v	*
=309	=309	=309
8e\L	8eeL 8b 8g\	.
8A\	8ff# 8cc 8a\	.
8B\	8ee 8b 8g\	.
8BB\J	8dd#XJ 8b 8f#\	.
=310	=310	=310
4E 4EE/	4ee 4b 4g\	pp
(16EE/LL	4r	.
16DD/	.	.
16CC/	.	.
16BBB/JJ)	.	.
*	*clefF4	*
!!LO:PB:g=original
=311||	=311||	=311||
!!LO:TX:a:B:t=Agitato.
(16EE/LL	8E^\L	.
16DD/	.	.
16CC/	16r	.
16BBB/JJ)	16E\K	.
(16EE/LL	8E\	.
16DD/	.	.
16CC/	8E\J	.
16BBB/JJ)	.	.
=312	=312	=312
(16EE/LL	4B 4G 4E^\	.
16DD/	.	.
16CC/	.	.
16BBB/JJ)	.	.
(16EE/LL	4B 4G 4E^\	.
16DD/	.	.
16CC/	.	.
16BBB/JJ)	.	.
=313	=313	=313
(16AAA/LL	8cL 8A 8E^\	.
16GGG/	.	.
16FFF#/	16r	.
16GGG/JJ	16cK 16A 16E\	.
16AAA/LL	8c 8A 8E\	.
16BBB/	.	.
16CC/	8cJ 8A 8E\	.
16DD/JJ)	.	.
=314	=314	=314
(16EE/LL	2B 2G 2E\	.
16DD#X/	.	.
16EE/	.	.
16FF#/JJ	.	.
16GG/LL	.	.
16FF#/	.	.
16GG/	.	.
16AA/JJ)	.	.
*	*clefG2	*
=315	=315	=315
(<16BB/LL	8bL 8f# 8d^>/	.
16C#X/	.	.
16D/	16r	.
16E/JJ	16bK 16f# 16d/	<
16F#\LL	8b 8f# 8d/	.
16G\	.	.
16F#\	8bJ 8f# 8d/	.
16E\JJ)	.	.
!!LO:LB:g=original
=316	=316	=316
(16D/LL	4ff# 4dd 4b 4f#^\	.
16C#X/	.	.
16BB/	.	.
16C#/JJ	.	.
16BB/LL	4ff# 4dd 4b 4f#^\	.
16AA/	.	.
16GG/	.	.
16FF#/JJ)	.	.
=317	=317	=317
(16EE/LL	8ggL 8ee 8b 8g^\	.
16DD/	.	.
16CC#X/	16r	.
16DD/JJ	16ggK 16ee 16b 16g\	.
16EE/LL	8gg 8ee 8b 8g\	.
16FF#/	.	.
16GG/	8ggJ 8ee 8b 8g\	.
16AA/JJ)	.	.
=318	=318	=318
(16BB/LL	4ff# 4dd 4b 4f#\	.
16AA/	.	.
16GG/	.	.
16FF#/JJ)	.	.
(16BB/LL	8r	.
16AA/	.	.
16GG/	16f#/LL	.
16FF#/JJ)	16f#/JJ	.
=319	=319	=319
(16BB/LL	4b 4f# 4d^>/	.
16AA/	.	.
16GG/	.	.
16FF#/JJ)	.	.
(16BB/LL	8r	.
16AA/	.	.
16GG/	16f#/LL	.
16FF#/JJ)	16f#/JJ	[[
=320	=320	=320
!	!LO:TX:a:i:t=po-co a po-co cres-cen-do:ext=ud:problem:text with extention lines	!
(16BB/LL	4ff# 4dd 4b 4f#^\	<
16AA/	.	.
16GG/	.	.
16FF#/JJ)	.	.
(16BB/LL	8r	.
16AA/	.	.
16GG/	16a/LL	.
16FF#/JJ)	16a/JJ	.
!!LO:LB:g=original
=321	=321	=321
(16C/LL	4dd 4a 4f#^>/	.
16BB/	.	.
16AA/	.	.
16GG/JJ)	.	.
(16C/LL	8r	.
16BB/	.	.
16AA/	16eeLL 16a\	.
16GG/JJ)	16eeJJ 16a\	.
=322	=322	=322
(16C/LL	2aa 2ff# 2dd 2a^\	.
16BB/	.	.
16AA/	.	.
16GG/JJ	.	.
16FF#/LL	.	.
16EE/	.	.
16DD/	.	.
16CC#X/JJ)	.	.
=323	=323	=323
(16DD/LL	4aa 4ff# 4dd 4a\	.
16EE/	.	.
16FF#/	.	.
16GG/JJ	.	.
16AA/LL	8r	.
16BB/	.	.
16C/	16dddLL 16ff# 16dd\	.
16D/JJ)	16dddJJ 16ff# 16dd\	.
=324	=324	=324
(16E\LL	4ddd 4ff# 4dd^\	.
16F#\	.	.
16G\	.	.
16A\JJ	.	.
16B\LL	8r	.
16c\	.	.
16d\	16dddLL 16ff# 16dd\	.
16e\JJ)	16dddJJ 16ff# 16dd\	.
=325	=325	=325
(16f#^\LL	16ddd^\LL	.
16e\	16ccc\	.
16d\	16bb\	.
16e\JJ)	16ccc\JJ	.
(16f#^\LL	16ddd^\LL	.
16e\	16ccc\	.
16d\	16bb\	[[
16c#X\JJ)	16aa\JJ	.
!!LO:LB:g=original
=326	=326	=326
(16d^\LL	4bb 4gg 4dd^\	<
16cnX\	.	.
16B\	.	.
16c\JJ)	.	.
(16d^\LL	4aa 4ff# 4dd^\	.
16c\	.	.
16B\	.	.
16A\JJ)	.	.
=327	=327	=327
(16B^\LL	4gg 4dd 4g^\	.
16A\	.	.
16G\	.	.
16F#\JJ)	.	.
(16A^\LL	4ff# 4dd 4a^\	.
16G\	.	.
16F#\	.	.
16E\JJ)	.	.
=328	=328	=328
(16G^\LL	4ee 4cc#X 4a^\	.
16F#\	.	.
16E\	.	.
16D\JJ)	.	.
(16F#^\LL	4dd 4ccn 4a^>/	.
16E\	.	.
16D\	.	.
16C#X\JJ)	.	.
=329	=329	=329
(16Cn^>/LL	8dddL 8aa 8ff# 8dd^\	.
16BB/	.	.
16AA/	8ddd 8aa 8ff# 8dd^\	.
16C/JJ)	.	.
(16BB^>/LL	8ddd 8bb 8gg 8dd^\	.
16AA/	.	.
16GG/	8dddJ 8bb 8gg 8dd^\	.
16BB/JJ)	.	.
=330	=330	=330
!LO:TX:a:i:t=molto ritard.	!	!
16AA^>/LL	8dddL 8ccc 8ff# 8dd^\	.
16GG/	.	.
16FF#/	8ddd 8ccc 8ff# 8dd^\	.
16EE/JJ	.	.
16DD/LL	8ddd 8ccc 8ff# 8dd^\	.
16C 16CC^>/	.	.
16BB 16BBB^>/	8dddJ 8ccc 8ff# 8dd^\	[
16AAJJ 16AAA^>/	.	.
=331||	=331||	=331||
*M4/4	*M4/4	*
!!LO:TX:a:B:t=Maestoso
!	!	!LO:DY:rj
4GG 4GGG/	4gg 4dd 4b 4g\	ff
4d 4B 4G 4D\	4gg 4dd 4b 4g\	.
4D 4DD/	4aa 4ff# 4dd 4a\	.
4d 4A 4F# 4D\	4aa 4ff# 4dd 4a\	.
!!LO:LB:g=original
=332	=332	=332
!!LO:TX:a:B:t=e trionfale.
4GG 4GGG/	(4.ddd 4.bb 4.gg 4.dd^\	.
4d 4B 4G 4D\	.	.
.	8bb 8gg 8dd\	.
4BB 4BBB/	8ggL 8dd 8b\)	.
.	8gg 8dd 8b\	.
4GG 4GGG/	8bb 8gg 8dd\	.
.	8ggJ 8dd 8b\	.
=333	=333	=333
4C 4CC/	4ee 4cc 4g\	.
4AA 4AAA/	2ccc 2ee 2cc^\	.
4D 4DD/	.	.
4d 4A 4F# 4D\	8.aaL 8.ff# 8.cc\	.
.	16ff#Jk 16dd 16a\	.
=334	=334	=334
4GG 4GGG/	2gg 2dd 2b\	.
8.dL 8.B 8.G 8.D\	.	.
16dJk 16B 16G 16D\	.	.
4d 4B 4G 4D\	4r	.
4r	8.ggL 8.dd 8.b\	.
.	16aaJk 16dd\	.
=335	=335	=335
4G 4GG/	4bb 4gg 4dd\	.
4d 4B 4G 4D\	4bb 4gg 4dd\	.
4G 4GG/	4bb 4gg 4dd\	.
4d 4B 4G 4D\	8.cccL 8.gg 8.ee\	.
.	16bbJk 16gg 16dd\	.
!!LO:LB:g=original
=336	=336	=336
4D 4DD/	(4bb 4gg 4dd\	.
4d 4A 4F# 4D\	4aa 4ff# 4dd\)	.
4D 4DD/	4r	.
4d 4A 4F# 4D\	8.aaL 8.ff# 8.dd\	.
.	16bbJk 16gg 16dd\	.
=337	=337	=337
4D 4DD/	4ccc 4aa 4dd\	.
4d 4A 4F# 4D\	4ccc 4aa 4dd\	.
4F# 4FF#/	4ccc 4aa 4dd\	.
4d 4A 4F# 4D\	8.dddL 8.aa 8.dd\	.
.	16cccJk 16aa 16dd\	.
=338	=338	=338
4GG 4GGG/	2bb 2gg 2dd\	.
8.dL 8.B 8.G 8.D\	.	.
16dJk 16B 16G 16D\	.	.
4d 4B 4G 4D\	4r	.
8d\L	8dddL 8dd\	.
8d\J	8dddJ 8dd\	.
=339	=339	=339
4d^\	4ddd 4dd^\	.
8.B\L	8.bbL 8.b\	.
16G\Jk	16ggJk 16g\	.
4d^\	4ddd 4dd^\	.
8.B\L	8.bbL 8.b\	.
16G\Jk	16ggJk 16g\	.
=340	=340	=340
4D\	2dd 2d/	.
4c 4C\	.	.
4B 4BB\	8.r	.
.	16d/	.
4A 4AA\	8.d/L	.
.	16f#/Jk	.
!!LO:PB:g=original
=341	=341	=341
*	*^	*
4F# 4FF#/	2a 2f# 2d/	2ryy	.
4D 4DD/	.	.	.
4F# 4FF#/	4cc 4a 4d^>/	4ryy	.
4D 4DD/	8.a/L	4c\	.
.	16g/Jk	.	.
*	*v	*v	*
=342	=342	=342
4G 4GG/	4g 4d 4B/	.
4G 4GG/	4g 4d 4B/	.
(8GG\L	2ffn 2fn\	mf
8D\	.	.
8d 8B\	.	.
8G\J)	.	.
=343	=343	=343
(8C\L	(4ee 4e/	.
8G\	.	.
8e 8c\	8.ggL 8.g\	.
8G\J)	.	.
.	16ggJk 16g\	.
(8E\L	4gg 4g\	.
8G\	.	.
8e 8c\	8.ff#XL 8.f#X\	.
8G\J)	.	.
.	16ggJk 16g\	.
=344	=344	=344
(8FF#\L	2aa 2a\)	.
8D\	.	.
8c 8A\	.	.
8D\J)	.	.
(8FF#\L	4r	.
8D\	.	.
8c 8A\	(4aa 4a\	.
8D\J)	.	.
!!LO:LB:g=original
=345	=345	=345
(8GG/L	4.bb-X 4.b-X\	.
8D/	.	.
8B 8G-X/	.	.
!	!LO:N:vis=4	!
8D/J)	8bb- 8b-\	.
(8GG/L	8aaL 8a\	.
8D/	8bb- 8b-\	.
8B 8G-/	8ccc 8cc\	.
8D/J)	8dddJ 8dd\	.
=346	=346	=346
(8DD/L	2aa 2a\)	.
8D/	.	.
8A 8F#/	.	.
8D/J)	.	.
(8DD/L	4r	.
8D/	.	.
8c 8F#/	(8.bb-XL 8.b-X^\	.
8D/J)	.	.
.	16aaJk 16a\	.
=347	=347	=347
(8EE-X/L	4gg 4g\	.
8E-X/	.	.
8B-X 8G/	4gg 4g\	.
8E-/J)	.	.
(8D/L	8.ggL 8.g\	.
8B- 8G/)	.	.
.	16bb-XK 16b-X\	.
(8C#X/	8.aa 8.a\	.
8AJ 8G/)	.	.
.	16ggJk 16g\	.
=348	=348	=348
(8DD/L	(4gg 4dd (4g\	.
8D/	.	.
8A 8F#/	8ff# 8dd 8f#\)))L	<
8D/J)	16r	.
.	16ddd 16dd\J	.
(8DD/L	8dddL 8dd\	.
8D/	16r	.
.	16dddJk 16dd\	.
8A 8F#/	8dddL 8dd\	.
8D/J)	16r	.
.	16dddJk 16dd\	[
=349	=349	=349
8GGL 8GGG/	[2ddd [2bb [2gg [2dd\	fff
8B 8G 8D/	.	.
8d 8B 8G/	.	.
8gJ 8d 8B/	.	.
8bL 8g 8d\	8ddd]L 8bb] 8gg] 8dd\]	.
8d\	8ddd 8dd\	.
8B\	8bb 8b\	.
8G\J	8ggJ 8g\	.
!!LO:LB:g=original
=350	=350	=350
!	!LO:SIC:v:o=8ggL 8ff# 8dd 8a\	!
4DD 4DDD/	8aaL 8ff# 8dd 8a\	.
.	16r	.
.	16dddJk 16dd\	.
(16qqAA/LL	.	.
16qqBB/	.	.
16qqC#X/JJ	.	.
4D^>/)	8dddL 8dd\	.
.	16r	.
.	16dddJk 16dd\	.
(16qqAA/LL	.	.
16qqBB/	.	.
16qqC#/JJ	.	.
4D^>/)	8dddL 8dd\	.
.	16r	.
.	16dddJk 16dd\	.
(16qqAA/LL	.	.
16qqBB/	.	.
16qqC#/JJ	.	.
4D^>/)	8dddL 8dd\	.
.	16r	.
.	16dddJk 16dd\	.
=351	=351	=351
8GGL 8GGG/	[2ddd [2bb [2gg [2dd\	.
8B 8G 8D/	.	.
8d 8B 8G/	.	.
8gJ 8d 8B/	.	.
8bL 8g 8d\	8ddd]L 8bb] 8gg] 8dd\]	.
8d\	8ddd 8dd\	.
8B\	8bb 8b\	.
8G\J	8ggJ 8g\	.
=352	=352	=352
4DD 4DDD/	8aaL 8ff# 8dd 8a/	.
.	16ddL 16d/	.
.	16ddJJ 16d/	.
(16qqAA/LL	.	.
16qqBB/	.	.
16qqC#X/JJ	.	.
4D^>/)	8ddL 8d/	.
.	16r	.
.	16ddJk 16d/	.
(16qqAA/LL	.	.
16qqBB/	.	.
16qqC#/JJ	.	.
4D^>/)	8ddL 8d/	.
.	16r	.
.	16ddJk 16d/	.
(16qqAA/LL	.	.
16qqBB/	.	.
16qqC#/JJ	.	.
!	!LO:TX:t=P:problem:brackettup	!
4D^>/)	12ddL 12d/	.
.	12dd 12d/	.
.	12ddJ 12d/	.
=353	=353	=353
4GG 4GGG/	[2gg [2dd [2b [2g\	.
8.BL 8.G 8.D\	.	.
16BJk 16G 16D\	.	.
4B 4G 4D\	8gg] 8dd] 8b] 8g\]	.
.	8r	.
4D 4DD/	4aa 4ff# 4dd 4a\	.
!!LO:LB:g=original
=354	=354	=354
4GG 4GGG/	[2bb [2gg [2dd [2b\	.
8.BL 8.G 8.D\	.	.
16BJk 16G 16D\	.	.
4B 4G 4D\	8bb] 8gg] 8dd] 8b\]	.
.	8r	.
4B 4G 4Fn 4D\	4bb 4gg 4dd 4b\	.
=355	=355	=355
2c 2G 2E\	2ccc 2gg 2cc\	.
4B 4G 4D\	4ddd 4gg 4dd\	.
4A 4G 4C\	4eee 4gg 4ee\	.
=356	=356	=356
4A 4G 4C#X\	4aa 4ee 4cc#X 4a\	.
*brackettup	*brackettup	*
!LO:TX:t=P:problem:brackettup	!LO:TX:t=P:problem:brackettup	!
!LO:TUP:a	!LO:TUP:a	!
12eL 12A\	12aaL 12gg 12ee 12a\	.
12f# 12d\	12aa 12ff# 12dd 12a\	.
12eJ 12A\	12aaJ 12ee 12cc# 12a\	.
4f# 4d\	4aa 4ff# 4dd 4a\	.
4C# 4CC#X/	4eee 4aa#X 4gg 4ee\	.
=357	=357	=357
4D 4DD/	[2ddd [2bb [2gg [2dd\	.
8.dL 8.B 8.G 8.D\	.	.
16dJk 16B 16G 16D\	.	.
4d 4B 4G 4D\	8.ddd]L 8.bb] 8.gg] 8.dd\]	.
.	16bbK 16b\	.
4d 4A 4F# 4D\	8.ccc 8.cc\	.
.	16aaJk 16a\	.
=358	=358	=358
*	*^	*
!	!	!	!LO:DY:t=sempre %s e stretto
4G 4GG/	2gg 2dd 2b\	2ryy	fff
4F# 4FF#/	.	.	.
4E 4EE/	8.ccc/L	4gg 4cc\	.
.	16bb/K	.	.
4D 4DD/	8.ccc/	4ff# 4dd\	.
.	16aa/Jk	.	.
*	*v	*v	*
=359	=359	=359
4G 4GG/	4bb 4gg 4dd\	.
4A 4AA/	4ccc 4gg 4cc\	.
4B 4BB\	4ddd 4gg 4dd\	.
4c 4C\	4eee 4gg 4ee\	.
!!LO:LB:g=original
=360	=360	=360
4.C 4.CC/	16aa\LL	.
.	16gg\	.
.	16ee\	.
.	16a\JJ	.
.	16aa\LL	.
.	16gg\	.
8C 8CC/	16ee\	.
.	16a\JJ	.
4C 4CC/	16aa\LL	.
.	16gg\	.
.	16ee\	.
.	16a\JJ	.
4C 4CC/	16aa\LL	.
.	16gg\	.
.	16ee\	.
.	16a\JJ	.
=361	=361	=361
4D 4DD/	16bb\LL	.
.	16gg\	.
.	16dd\	.
.	16b\JJ	.
4D 4DD/	16bb\LL	.
.	16gg\	.
.	16dd\	.
.	16b\JJ	.
4AA 4AAA/	16ccc\LL	.
.	16gg\	.
.	16ee\	.
.	16cc\JJ	.
4D 4DD/	16aa\LL	.
.	16ff#\	.
.	16cc\	.
.	16a\JJ	.
=362	=362	=362
4G 4GG/	4gg 4dd 4b\	.
4r	4r	.
4D 4DD/	4ddd 4aa 4ff# 4dd\	.
4r	4r	.
=363	=363	=363
4GG 4GGG/	4ggg 4ddd 4bb 4gg\	.
4r	4r	.
4D 4DD/	4ddd 4aa 4ff# 4dd\	.
4r	4r	.
=364	=364	=364
4GG 4GGG/	4ggg 4ddd 4bb 4gg\	.
4r	4r	.
4.G 4.GG/	4.g 4.d 4.B/	.
8G 8GG/	8g 8d 8B/	.
=365	=365	=365
1G 1GG;<	1g 1d 1B;	.
==	==	==
*-	*-	*-
!!!system-decoration: {(g1)}
!!!RDF**kern: i = editorial accidental
!!!RDF**kern: > = above
!!!RDF**kern: < = below
!!!RDF**kern: N = linked
!!!RDF**dynam: > = "dim.", fontstyle= "italic"
!!!ENC: Anastazja Marusiak
!!!EED: Katarzyna Serwa
!!!END: 2023-10-08
!!!EEV: 2023-10-21
